assets/icons/printer/error.svg

<?xml version="1.0" encoding="UTF-8" standalone="no"?>
<svg viewBox="0 0 24 24" height="24" width="24" version="1.1" id="svg6" sodipodi:docname="error.svg" inkscape:version="1.2 (1:1.2.1+202207142221+cd75a1ee6d)"
   xmlns:inkscape="http://www.inkscape.org/namespaces/inkscape"
   xmlns:sodipodi="http://sodipodi.sourceforge.net/DTD/sodipodi-0.dtd"
   xmlns="http://www.w3.org/2000/svg"
   xmlns:svg="http://www.w3.org/2000/svg">
   <defs id="defs10" />
   <sodipodi:namedview id="namedview8" pagecolor="#ffffff" bordercolor="#666666" borderopacity="1.0" inkscape:pageshadow="2" inkscape:pageopacity="0.0" inkscape:pagecheckerboard="0" showgrid="true" inkscape:zoom="28" inkscape:cx="15.553571" inkscape:cy="12.017857" inkscape:window-width="1846" inkscape:window-height="1016" inkscape:window-x="0" inkscape:window-y="0" inkscape:window-maximized="1" inkscape:current-layer="svg6" inkscape:showpageshadow="2" inkscape:deskcolor="#d1d1d1">
      <inkscape:grid type="xygrid" id="grid822" />
      <inkscape:grid type="xygrid" id="grid522" dotted="true" spacingx="0.5" spacingy="0.5" empspacing="10" />
   </sodipodi:namedview>
   <path id="path981" style="fill:#808080;fill-opacity:1;fill-rule:evenodd;stroke-width:0.5;stroke-linecap:round;stroke-linejoin:round" d="M 17.5 13 C 15.014721 13 13 15.014721 13 17.5 C 13 19.985279 15.014721 22 17.5 22 C 19.985279 22 22 19.985279 22 17.5 C 22 15.014721 19.985279 13 17.5 13 z M 15.853516 15.146484 L 17.5 16.792969 L 19.146484 15.146484 L 19.853516 15.853516 L 18.207031 17.5 L 19.853516 19.146484 L 19.146484 19.853516 L 17.5 18.207031 L 15.853516 19.853516 L 15.146484 19.146484 L 16.792969 17.5 L 15.146484 15.853516 L 15.853516 15.146484 z " />
   <path id="rect867" style="fill:#808080;fill-opacity:1;fill-rule:evenodd;stroke-width:0.5;stroke-linecap:round;stroke-linejoin:round" d="M 6 2 L 6 7.0078125 C 4.9331312 7.0375525 4.020411 7.1789501 3.2949219 7.640625 C 2.4585413 8.1728672 2 9.1500014 2 10.5 L 2 14.5 C 2 15.849999 2.4585413 16.827133 3.2949219 17.359375 C 4.020411 17.82105 4.9331312 17.962447 6 17.992188 L 6 22 L 12 22 L 12 21 L 7 21 L 7 15 L 6 15 L 6 16.990234 C 5.0321461 16.954544 4.2918341 16.80947 3.8300781 16.515625 C 3.2914601 16.172868 3 15.649999 3 14.5 L 3 10.5 C 3 9.3500012 3.2914601 8.8271319 3.8300781 8.484375 C 4.3686961 8.1416181 5.2833345 8 6.5 8 L 7 8 L 17 8 L 17.5 8 C 18.716665 8 19.631304 8.1416181 20.169922 8.484375 C 20.70854 8.8271319 21 9.3500012 21 10.5 L 21 12 L 22 12 L 22 10.5 C 22 9.1500014 21.541459 8.1728672 20.705078 7.640625 C 19.97959 7.1789501 19.066869 7.0375523 18 7.0078125 L 18 2 L 6 2 z M 7 3 L 17 3 L 17 7 L 7 7 L 7 3 z M 18 10 A 1 1 0 0 0 17 11 A 1 1 0 0 0 18 12 A 1 1 0 0 0 19 11 A 1 1 0 0 0 18 10 z M 8 17 L 8 18 L 12 18 L 12 17 L 8 17 z M 8 19 L 8 20 L 12 20 L 12 19 L 8 19 z " />
</svg>

<svg height="24" width="24" xmlns="http://www.w3.org/2000/svg"><path style="fill:gray;fill-opacity:1;stroke-width:.5;stroke-linecap:round;stroke-linejoin:round" d="M17.5 13a4.5 4.5 0 1 0 0 9 4.5 4.5 0 0 0 0-9zm-1.646 2.146 1.646 1.647 1.646-1.647.708.708-1.647 1.646 1.647 1.646-.708.708-1.646-1.647-1.646 1.647-.708-.708 1.647-1.646-1.647-1.646.708-.708z"/><path style="fill:gray;fill-opacity:1;stroke-width:.5;stroke-linecap:round;stroke-linejoin:round" d="M6 2v5.008c-1.067.03-1.98.171-2.705.633C2.459 8.173 2 9.15 2 10.5v4c0 1.35.459 2.327 1.295 2.86.725.461 1.638.602 2.705.632V22h6v-1H7v-6H6v1.99c-.968-.035-1.708-.18-2.17-.474C3.291 16.173 3 15.65 3 14.5v-4c0-1.15.291-1.673.83-2.016C4.37 8.142 5.283 8 6.5 8h11c1.217 0 2.131.142 2.67.484.539.343.83.866.83 2.016V12h1v-1.5c0-1.35-.459-2.327-1.295-2.86-.725-.461-1.638-.602-2.705-.632V2H6zm1 1h10v4H7V3zm11 7a1 1 0 0 0-1 1 1 1 0 0 0 1 1 1 1 0 0 0 1-1 1 1 0 0 0-1-1zM8 17v1h4v-1H8zm0 2v1h4v-1H8z"/></svg>
